X: 1
T: Savior, Like A Shepherd Lead Us
C: Words: attr. Dorothy Ann Thrupp, 1836. 
C: Music and Setting: 'Bradbury' William B. Bradbury, 1859.
C: copyright: public domain.  This score is a part of the Open Hymnal Project, 2007 Revision.
S: Music source: "The Golden Chain and Shower", 1866 Hymn 94.  Ed. Wm. Bradbury
M: 4/4 % time signature
L: 1/4 % default length
%%staves (S1V1 S1V2) | (S2V1 S2V2) 
V: S1V1 clef=treble 
%%MIDI beat 127 125 110 1
V: S1V2 
%%MIDI beat 127 125 110 1
V: S2V1 clef=bass 
%%MIDI beat 127 125 110 1
V: S2V2 
%%MIDI beat 127 125 110 1
K: Eb % key signature
%
%%MIDI program 1 0 % Piano 1
%%MIDI program 2 0 % Piano 1
%%MIDI program 3 0 % Piano 1
%%MIDI program 4 0 % Piano 1
%
% 1
[V: S1V1] [Q:1/4=100] G G G/ F/ G/ A/ | (B e) (B G) | F G A/ c/ B/ A/ | G3 z |
w: 1.~Sa- vior, like a shep- herd lead * us, * much we need Thy ten- der care; 
w: 2.~We are Thine, Thou dost be- friend * us, * be the guard- ian of our way; 
w: 3.~Thou hast pro- mised to re- ceive * us, * poor and sin- ful though we be; 
w: 4.~Ear- ly let us seek Thy fa- * vor, * ear- ly let us do Thy will; 
[V: S1V2]  E E E/ D/ E/ F/ | G2 (G E) | D E F/ A/ G/ F/ | E3 x |
[V: S2V1]  B, B, B,/ B,/ B,/ B,/ | B,2 (E B,) | B, B, B,/ B,/ B,/ B,/ | B,3 z |
[V: S2V2]  E, E, E,/ A,/ G,/ F,/ | E,2 E,2 | B,, B,, B,,/ B,,/ B,,/ B,,/ | E,3 x |
% 5
[V: S1V1]  G G G/ F/ G/ A/ | (B e) (B G) | F G A/ c/ B/ A/ | G3
w: In Thy plea- sant pas- tures feed * us, * for our use Thy folds pre- pare. 
w: Keep Thy flock, from sin de- fend * us, * seek us when we go a- stray. 
w: Thou hast mer- cy to re- lieve * us, * grace to cleanse and pow'r to free. 
w: Bless- èd Lord and on- ly Sa- * vior, * with Thy love our bo- soms fill. 
[V: S1V2]  E E E/ D/ E/ F/ | G2 (G E) | D E F/ A/ G/ F/ | E3
[V: S2V1]  B, B, B,/ B,/ B,/ B,/ | B,2 (E B,) | B, B, B,/ B,/ B,/ B,/ | B,3
[V: S2V2]  E, E, E,/ A,/ G,/ F,/ | E,2 E,2 | B,, B,, B,,/ B,,/ B,,/ B,,/ | E,3
% 9
[V: S1V1]  B/ B/ | c e2 d/ c/ | B G2 G/ G/ | F c B A | G3
w: Bless- èd Je- sus, bless- èd Je- sus! Thou hast bought us, Thine we are. 
w: Bless- èd Je- sus, bless- èd Je- sus! Hear, O hear us when we pray. 
w: Bless- èd Je- sus, bless- èd Je- sus! We will ear- ly turn to Thee. 
w: Bless- èd Je- sus, bless- èd Je- sus! Thou hast loved us, love us still. 
[V: S1V2]  G/ G/ | A c2 B/ A/ | G E2 E/ E/ | D A G F | E3
[V: S2V1]  E/ E/ | E E2 E/ E/ | E B,2 B,/ B,/ | B, B, B, B, | B,3
[V: S2V2]  E,/ E,/ | A, A,2 A,/ A,/ | E, E,2 E,/ E,/ | B,, B,, B,, B,, | E,3
% 13
[V: S1V1]  B/ B/ | c e2 d/ c/ | B !fermata!e2 !sintro!E/ F/ | G B A3/2 F/ | E3 !eintro!|]
w: Bless- èd Je- sus, bless- èd Je- sus! Thou hast bought us, Thine we are. 
w: Bless- èd Je- sus, bless- èd Je- sus! Hear, O hear us when we pray. 
w: Bless- èd Je- sus, bless- èd Je- sus! We will ear- ly turn to Thee. 
w: Bless- èd Je- sus, bless- èd Je- sus! Thou hast loved us, love us still. 
[V: S1V2]  G/ G/ | A c2 B/ A/ | G !ferm!G2 E/ E/ | E G F3/2 D/ | E3 |]
[V: S2V1]  E/ E/ | E E2 E/ E/ | E !invertedfermata!B,2 G,/ A,/ | B, B, B,3/2 A,/ | G,3 |]
[V: S2V2]  E,/ E,/ | A, A,2 A,/ A,/ | E, !ferm!E,2 E,/ E,/ | E, E, B,,3/2 B,,/ | E,3 |]
% 18
